svgs/sharp-solid/podium.svg

<svg xmlns="http://www.w3.org/2000/svg" viewBox="0 0 448 512"><!--! Font Awesome Pro 6.5.2 by @fontawesome - https://fontawesome.com License - https://fontawesome.com/license (Commercial License) Copyright 2024 Fonticons, Inc. --><path d="M288 0H192V24H168c-48.6 0-88 39.4-88 88v32H24 0v48H24 424h24V144H424 128V112c0-22.1 17.9-40 40-40h24V96h96c26.5 0 48-21.5 48-48s-21.5-48-48-48zM48 224L80 512H368l32-288H48z"/></svg>

<svg xmlns="http://www.w3.org/2000/svg" viewBox="0 0 448 512"><!--! Font Awesome Pro 6.6.0 by @fontawesome - https://fontawesome.com License - https://fontawesome.com/license (Commercial License) Copyright 2024 Fonticons, Inc. --><path d="M288 0L192 0l0 24-24 0c-48.6 0-88 39.4-88 88l0 32-56 0L0 144l0 48 24 0 400 0 24 0 0-48-24 0-296 0 0-32c0-22.1 17.9-40 40-40l24 0 0 24 96 0c26.5 0 48-21.5 48-48s-21.5-48-48-48zM48 224L80 512l288 0 32-288L48 224z"/></svg>
